X:189
M:6/8
L:1/8
Q:3/8=100
K:D
e2 e A>BA|d2 A (F/G/A)F|D2 d afd|ege d3:|
:|A3 d>ed|a>ba f>gf|b3 gag|fed e3|\

